X: 3262
T: The RAILWAY
%R: jig
B: James Kerr "Merry Melodies" v.3 p.29 #262
Z: 2016 John Chambers <jc:trillian.mit.edu>
M: 6/8
L: 1/8
K: G
uD |\
vG2vG GBd | g2d dgf | e2d c2B | ABG FED |\
G2G GBd | g2d dgf | edc BAG | A3 G2 :|
|: d |\
b2b b2a | g2g g2d | e2d efg | a2g fed |\
b2b b2a | g2g g2d | efg dBG | A3 G2 :|

%%sep 1 1 500
%%sep 1 1 500

